X: 1906
T: Uşşak Peşrev
C: Zurnazen İbrahim Ağa
O: Turkey
F: http://compmusic.upf.edu/node/140
N: ussak--pesrev--cenber----zurnazen_ibrahim_aga
N: makam= ussak
N: form= pesrev
N: usul= cenber = 24/4
M: 24/4
L: 1/16
K: C _2/4B   
Q: 1/4=114
%%MIDI tuningsystem comma53
A2 B2 A2 G2 A4 B4  | c4 B2 A2 d4 c2 B2  | \
w:  1. HANE  |   | 
c2 B2 A2 e2 d8  | A2 B2 A2 G2 A4 B4  | 
w:   |   | 
c4 B2 A2 d4 d2 B2  | c2 B2 B2 A2 A8  | \
w:   |   | 
f4 e4 d4 e4  | f4 e4 d4 B4  | c2 B2 c2 d2 B8  | 
w:  MÜLÂZİME  |   |   | 
d4 c2 B2 c4 d4  | d4 c2 B2 A2 B2 c4  | \
w:   |   | 
B4 A4 A8  | G4 A4 G4 c4  | B4 A4 B4 c4  | 
w:   |   |   | 
B4 e4 d8  | G4 A4 G4 c4  | B4 A4 B4 c4  | \
w:   |   |   | 
B4 A4 A8  | G2 A2 G2 A2 B2 c2 d2 e2  | 
w:   |  2. HANE  | 
^3/4f2 g2 f2 g2 f4 g4  | a4 g4 a8  | \
w:   |   | 
e4 ^3/4f4 g4 a2 =b2  | a4 g2 ^3/4f2 e2 f2 g4  | \
w:   |   | 
^3/4f4 e4 e8  | 
w:   | 
a4 g2 f2 e2 f2 g4  | f2 e2 d2 e2 f4 f2 e2  | \
w:   |   | 
B2 c2 d2 c2 e4 d4  | B4 c4 d4 e4  | 
w:   |   | 
d4 c2 B2 A2 B2 c4  | B4 A4 A8  | f4 e4 d4 e4  | \
w:   |   |  MÜLÂZİME  | 
f4 e4 d4 B4  | c2 B2 c2 d2 B8  | 
w:   |   | 
d4 c2 B2 c4 d4  | d4 c2 B2 A2 B2 c4  | \
w:   |   | 
B4 A4 A8  | G4 A4 G4 c4  | B4 A4 B4 c4  | 
w:   |   |   | 
B4 e4 d8  | G4 A4 G4 c4  | B4 A4 B4 c4  | \
w:   |   |   | 
B4 A4 A8  | d8 d4 e4  | d8 c4 B4  | c4 B4 A8  | 
w:   |  3. HANE  |   |   | 
G4 A4 B4 c4  | d4 e4 f4 g4  | f2 e2 d2 c2 d8  | \
w:   |   |   | 
a4 g2 f2 e2 f2 g4  | f2 e2 d2 e2 f4 f2 e2  | 
w:   |   | 
B2 c2 d2 c2 e4 d4  | B4 c4 d4 e4  | d4 c2 B2 A2 B2 c4  | \
w:   |   |   | 
B4 A4 A8  | f4 e4 d4 e4  | 
w:   |  MÜLÂZİME  | 
f4 e4 d4 B4  | c2 B2 c2 d2 B8  | d4 c2 B2 c4 d4  | \
w:   |   |   | 
d4 c2 B2 A2 B2 c4  | B4 A4 A8  | 
w:   |   | 
G4 A4 G4 c4  | B4 A4 B4 c4  | B4 e4 d8  | \
w:   |   |   | 
G4 A4 G4 c4  | B4 A4 B4 c4  | B4 A4 A8  | 
w:   |   |   | 
|


